src/assets/attach-image-button.svg

<svg width="27" height="28" viewBox="0 0 27 28" fill="none" xmlns="http://www.w3.org/2000/svg">
<path d="M22.95 0H4.05C2.97587 0 1.94574 0.442499 1.18622 1.23015C0.426695 2.0178 0 3.08609 0 4.2V23.8C0 24.9139 0.426695 25.9822 1.18622 26.7698C1.94574 27.5575 2.97587 28 4.05 28H22.95C23.1721 27.9968 23.3934 27.9734 23.6115 27.93L24.0165 27.832H24.111H24.1785L24.678 27.636L24.8535 27.538C24.9885 27.454 25.137 27.384 25.272 27.286C25.4523 27.1485 25.6236 26.9988 25.785 26.838L25.8795 26.712C26.012 26.5727 26.1339 26.4229 26.244 26.264L26.3655 26.082C26.4598 25.9261 26.5411 25.7622 26.6085 25.592C26.6455 25.5248 26.6772 25.4546 26.703 25.382C26.7705 25.214 26.811 25.032 26.865 24.85V24.64C26.9415 24.3664 26.9868 24.0845 27 23.8V4.2C27 3.08609 26.5733 2.0178 25.8138 1.23015C25.0543 0.442499 24.0241 0 22.95 0ZM4.05 25.2C3.69196 25.2 3.34858 25.0525 3.09541 24.7899C2.84223 24.5274 2.7 24.1713 2.7 23.8V17.766L7.1415 13.146C7.267 13.0148 7.41631 12.9106 7.58082 12.8396C7.74533 12.7685 7.92178 12.7319 8.1 12.7319C8.27822 12.7319 8.45467 12.7685 8.61918 12.8396C8.78369 12.9106 8.933 13.0148 9.0585 13.146L20.6685 25.2H4.05ZM24.3 23.8C24.2987 23.9726 24.2667 24.1435 24.2055 24.304C24.1746 24.3722 24.1385 24.4378 24.0975 24.5C24.0614 24.5593 24.0208 24.6154 23.976 24.668L16.7535 17.178L17.9415 15.946C18.067 15.8148 18.2163 15.7106 18.3808 15.6396C18.5453 15.5685 18.7218 15.5319 18.9 15.5319C19.0782 15.5319 19.2547 15.5685 19.4192 15.6396C19.5837 15.7106 19.733 15.8148 19.8585 15.946L24.3 20.566V23.8ZM24.3 16.604L21.762 14C20.9894 13.2398 19.965 12.816 18.9 12.816C17.835 12.816 16.8106 13.2398 16.038 14L14.85 15.232L10.962 11.2C10.1894 10.4398 9.16501 10.016 8.1 10.016C7.03499 10.016 6.01058 10.4398 5.238 11.2L2.7 13.804V4.2C2.7 3.8287 2.84223 3.4726 3.09541 3.21005C3.34858 2.9475 3.69196 2.8 4.05 2.8H22.95C23.308 2.8 23.6514 2.9475 23.9046 3.21005C24.1578 3.4726 24.3 3.8287 24.3 4.2V16.604Z" fill="#3E3E3E"/>
</svg>

<svg width="27" height="28" fill="none" xmlns="http://www.w3.org/2000/svg"><path d="M22.95 0H4.05a3.978 3.978 0 00-2.864 1.23A4.28 4.28 0 000 4.2v19.6a4.28 4.28 0 001.186 2.97c.76.788 1.79 1.23 2.864 1.23h18.9c.222-.003.443-.027.662-.07l.405-.098h.161l.5-.196.175-.098c.135-.084.284-.154.419-.252a5.19 5.19 0 00.513-.448l.095-.126c.132-.14.254-.29.364-.448l.122-.182a3.28 3.28 0 00.242-.49c.037-.067.07-.137.095-.21.067-.168.108-.35.162-.532v-.21c.077-.274.122-.556.135-.84V4.2a4.28 4.28 0 00-1.186-2.97A3.978 3.978 0 0022.95 0zM4.05 25.2a1.33 1.33 0 01-.955-.41 1.427 1.427 0 01-.395-.99v-6.034l4.441-4.62c.126-.131.275-.235.44-.306a1.308 1.308 0 011.478.306L20.669 25.2H4.05zm20.25-1.4a1.446 1.446 0 01-.095.504c-.03.068-.066.134-.107.196a1.36 1.36 0 01-.122.168l-7.223-7.49 1.189-1.232c.125-.131.274-.235.439-.306a1.308 1.308 0 011.477.306l4.442 4.62V23.8zm0-7.196L21.762 14a4.08 4.08 0 00-2.862-1.184A4.08 4.08 0 0016.038 14l-1.188 1.232-3.888-4.032A4.08 4.08 0 008.1 10.016 4.08 4.08 0 005.238 11.2L2.7 13.804V4.2c0-.371.142-.727.395-.99.254-.263.597-.41.955-.41h18.9c.358 0 .701.147.955.41.253.263.395.619.395.99v12.404z" fill="#3E3E3E"/></svg>
